icons/checkbox-fill.svg

<svg viewBox="0 0 24 24" fill="currentColor" xmlns="http://www.w3.org/2000/svg"><path d="M4 3H20C20.5523 3 21 3.44772 21 4V20C21 20.5523 20.5523 21 20 21H4C3.44772 21 3 20.5523 3 20V4C3 3.44772 3.44772 3 4 3ZM11.0026 16L18.0737 8.92893L16.6595 7.51472L11.0026 13.1716L8.17421 10.3431L6.75999 11.7574L11.0026 16Z"/></svg>

<svg xmlns="http://www.w3.org/2000/svg" viewBox="0 0 24 24">
    <g>
        <path fill="none" d="M0 0h24v24H0z"/>
        <path d="M4 3h16a1 1 0 0 1 1 1v16a1 1 0 0 1-1 1H4a1 1 0 0 1-1-1V4a1 1 0 0 1 1-1zm7.003 13l7.07-7.071-1.414-1.414-5.656 5.657-2.829-2.829-1.414 1.414L11.003 16z"/>
    </g>
</svg>
